svg/Pictogram/pictograms-nps-accessibility-low_vision_access.svg

<svg xmlns="http://www.w3.org/2000/svg" viewBox="0 0 256 256"><path d="m0 0c-.541 0-.98-.441-.98-.982v-7.524c0-.541.439-.982.98-.982h7.527c.543 0 .983.441.983.982v7.524c0 .541-.44.982-.983.982h-7.527" fill="#fff" transform="matrix(25.88211 0 0-25.88211 30.593 5.218)"/><path d="m0 0c-.652 0-1.182.529-1.182 1.184v7.523c0 .652.53 1.182 1.182 1.182h7.527c.653 0 1.182-.53 1.182-1.182v-7.523c0-.655-.529-1.184-1.182-1.184h-7.527" transform="matrix(25.88211 0 0-25.88211 30.593 256)"/><g fill="#fff"><path d="m0 0c.002.358-.293.655-.652.651-.366.004-.662-.293-.662-.651 0-.367.296-.661.662-.662.359.0001.654.295.652.662" transform="matrix(25.88211 0 0-25.88211 111.22 33.854)"/><path d="m0 0l-2.104 2.552c-.109.162-.718.23-.976.023l-1.024-1.862.254-1.574c.254-.411.762.005.62.229l-.172 1.115.425.816-.023-2-.92-2.873c-.18-.61.717-.864.897-.277l1.138 3.173-.001 1.614-.529.626c-.025.03-.021.076.008.102.031.025.076.022.103-.009l1.75-2.069c.28-.385.844.024.563.414" transform="matrix(25.88211 0 0-25.88211 160.1 126.97)"/><path d="m0 0l-1.033 2.571-.42-1.181.603-1.735c.243-.571 1.1-.237.85.345" transform="matrix(25.88211 0 0-25.88211 139.28 218.59)"/><path d="m0 0c.002-.002.002-.005.004-.006.039-.049.111-.054.16-.014.043.038.053.103.022.15l-1.948 3.381c-.002.002-.004.004-.006.007-.039.046-.111.053-.158.012-.043-.037-.049-.099-.021-.149l1.947-3.381" transform="matrix(25.88211 0 0-25.88211 210.25 233.86)"/></g></svg>

<?xml version="1.0" encoding="UTF-8" standalone="no"?>
<!-- Created with Inkscape (http://www.inkscape.org/) -->
<svg
   xmlns:dc="http://purl.org/dc/elements/1.1/"
   xmlns:cc="http://creativecommons.org/ns#"
   xmlns:rdf="http://www.w3.org/1999/02/22-rdf-syntax-ns#"
   xmlns:svg="http://www.w3.org/2000/svg"
   xmlns="http://www.w3.org/2000/svg"
   xmlns:sodipodi="http://sodipodi.sourceforge.net/DTD/sodipodi-0.dtd"
   xmlns:inkscape="http://www.inkscape.org/namespaces/inkscape"
   width="256"
   height="256"
   id="svg5294"
   sodipodi:version="0.32"
   inkscape:version="0.46"
   version="1.0"
   sodipodi:docname="pictograms-nps-accessibility-low_vision_access-2.svg"
   inkscape:output_extension="org.inkscape.output.svg.inkscape">
  <defs
     id="defs5296">
    <inkscape:perspective
       sodipodi:type="inkscape:persp3d"
       inkscape:vp_x="0 : 526.18109 : 1"
       inkscape:vp_y="0 : 1000 : 0"
       inkscape:vp_z="744.09448 : 526.18109 : 1"
       inkscape:persp3d-origin="372.04724 : 350.78739 : 1"
       id="perspective5302" />
  </defs>
  <sodipodi:namedview
     id="base"
     pagecolor="#ffffff"
     bordercolor="#666666"
     borderopacity="1.0"
     gridtolerance="10000"
     guidetolerance="10"
     objecttolerance="10"
     inkscape:pageopacity="0.0"
     inkscape:pageshadow="2"
     inkscape:zoom="1.4"
     inkscape:cx="124.57192"
     inkscape:cy="94.157392"
     inkscape:document-units="px"
     inkscape:current-layer="layer1"
     showgrid="false"
     inkscape:window-width="747"
     inkscape:window-height="674"
     inkscape:window-x="0"
     inkscape:window-y="309" />
  <metadata
     id="metadata5299">
    <rdf:RDF>
      <cc:Work
         rdf:about="">
        <dc:format>image/svg+xml</dc:format>
        <dc:type
           rdf:resource="http://purl.org/dc/dcmitype/StillImage" />
      </cc:Work>
    </rdf:RDF>
  </metadata>
  <g
     inkscape:label="Layer 1"
     inkscape:groupmode="layer"
     id="layer1">
    <g
       id="g3508"
       transform="matrix(25.882115,0,0,-25.882115,30.59266,5.2178344)">
      <path
         d="M 0,0 C -0.541,0 -0.98,-0.441 -0.98,-0.982 L -0.98,-8.506 C -0.98,-9.047 -0.541,-9.488 0,-9.488 L 7.527,-9.488 C 8.07,-9.488 8.51,-9.047 8.51,-8.506 L 8.51,-0.982 C 8.51,-0.441 8.07,0 7.527,0 L 0,0 z"
         style="fill:#ffffff;fill-opacity:1;fill-rule:nonzero;stroke:none"
         id="path3510" />
    </g>
    <g
       id="g3512"
       transform="matrix(25.882115,0,0,-25.882115,30.59266,256)">
      <path
         d="M 0,0 C -0.652,0 -1.182,0.529 -1.182,1.184 L -1.182,8.707 C -1.182,9.359 -0.652,9.889 0,9.889 L 7.527,9.889 C 8.18,9.889 8.709,9.359 8.709,8.707 L 8.709,1.184 C 8.709,0.529 8.18,0 7.527,0 L 0,0 z"
         style="fill:#000000;fill-opacity:1;fill-rule:nonzero;stroke:none"
         id="path3514" />
    </g>
    <g
       id="g3516"
       transform="matrix(25.882115,0,0,-25.882115,111.22062,33.853806)">
      <path
         d="M 0,0 C 0.002,0.358 -0.293,0.655 -0.652,0.651 C -1.018,0.655 -1.314,0.358 -1.314,0 C -1.314,-0.367 -1.018,-0.661 -0.652,-0.662 C -0.293,-0.661 0.002,-0.367 0,0"
         style="fill:#ffffff;fill-opacity:1;fill-rule:nonzero;stroke:none"
         id="path3518" />
    </g>
    <g
       id="g3520"
       transform="matrix(25.882115,0,0,-25.882115,160.10428,126.9702)">
      <path
         d="M 0,0 L -2.104,2.552 C -2.213,2.714 -2.822,2.782 -3.08,2.575 L -4.104,0.713 L -3.85,-0.861 C -3.596,-1.272 -3.088,-0.856 -3.23,-0.632 L -3.402,0.483 L -2.977,1.299 L -3,-0.701 L -3.92,-3.574 C -4.1,-4.184 -3.203,-4.438 -3.023,-3.851 L -1.885,-0.678 L -1.895,0.936 L -2.424,1.562 C -2.449,1.592 -2.445,1.638 -2.416,1.664 C -2.385,1.689 -2.34,1.686 -2.313,1.655 L -0.563,-0.414 C -0.283,-0.799 0.281,-0.39 0,0"
         style="fill:#ffffff;fill-opacity:1;fill-rule:nonzero;stroke:none"
         id="path3522" />
    </g>
    <g
       id="g3524"
       transform="matrix(25.882115,0,0,-25.882115,139.27684,218.59268)">
      <path
         d="M 0,0 L -1.033,2.571 L -1.453,1.39 L -0.85,-0.345 C -0.607,-0.916 0.25,-0.582 0,0"
         style="fill:#ffffff;fill-opacity:1;fill-rule:nonzero;stroke:none"
         id="path3526" />
    </g>
    <g
       id="g3528"
       transform="matrix(25.882115,0,0,-25.882115,210.25098,233.86044)">
      <path
         d="M 0,0 C 0.002,-0.002 0.002,-0.005 0.004,-0.006 C 0.043,-0.055 0.115,-0.06 0.164,-0.02 C 0.207,0.018 0.217,0.083 0.186,0.13 L -1.762,3.511 C -1.764,3.513 -1.766,3.515 -1.768,3.518 C -1.807,3.564 -1.879,3.571 -1.926,3.53 C -1.969,3.493 -1.975,3.431 -1.947,3.381 L 0,0 z"
         style="fill:#ffffff;fill-opacity:1;fill-rule:nonzero;stroke:none"
         id="path3530" />
    </g>
  </g>
</svg>
